incomeartour/img/icons/grid.svg

<svg width="300" height="300" viewBox="0 0 300 300" fill="none" xmlns="http://www.w3.org/2000/svg">
<path fill-rule="evenodd" clip-rule="evenodd" d="M4.79801 1.01922C3.65891 1.58655 2.11869 2.94685 1.37596 4.04224L0.0249959 6.03376V43.1927C0.0249959 83.4326 -0.0976031 81.8649 3.28933 84.9817L4.88133 86.4469L43.369 86.5981C80.949 86.7464 81.9024 86.7223 83.7962 85.5783C84.8632 84.9336 86.2678 83.5469 86.9183 82.4961C88.0651 80.6441 88.1014 79.4731 88.1032 43.7905C88.1056 3.30905 88.1942 4.32532 84.4532 1.69849L82.4517 0.292474L44.6604 0.140092C9.58352 -0.00174035 6.72031 0.0615568 4.79801 1.01922ZM110.763 1.02625C109.641 1.58948 108.168 2.79505 107.49 3.70524C106.278 5.33163 106.254 5.98336 106.095 42.674C105.982 68.7079 106.131 80.4565 106.585 81.5367C106.943 82.3888 108.038 83.8417 109.018 84.7666L110.799 86.4469H150H189.201L190.982 84.7666C191.962 83.8417 193.057 82.3888 193.415 81.5367C193.869 80.4565 194.018 68.7079 193.905 42.674C193.746 5.98336 193.722 5.33163 192.51 3.70524C189.659 -0.121301 191.066 0.00119007 150 0.00119007C115.762 0.00119007 112.641 0.0826558 110.763 1.02625ZM216.666 1.08427C215.536 1.68149 214.067 2.88707 213.401 3.76444C212.219 5.32401 212.188 6.19669 212.038 42.9729C211.888 79.6928 211.912 80.6312 213.074 82.4961C213.729 83.5469 215.137 84.9336 216.204 85.5783C218.098 86.7223 219.051 86.7464 256.631 86.5981L295.119 86.4469L296.711 84.9817C300.098 81.8649 299.975 83.4326 299.975 43.1927V6.03376L298.624 4.04224C295.779 -0.152364 297.402 0.00119007 255.925 0.000603983C220.851 -0.000568186 218.602 0.0615568 216.666 1.08427ZM4.79801 105.349C3.65891 105.912 2.11334 107.278 1.36346 108.383L0 110.393L0.161283 148.237C0.318399 185.04 0.355298 186.124 1.51284 187.644C2.1675 188.503 3.50656 189.69 4.48854 190.281C6.15909 191.287 8.5694 191.367 41.9097 191.528C81.6977 191.721 82.7761 191.644 85.6863 188.379C86.6802 187.265 87.6402 185.764 87.8193 185.045C87.9984 184.325 88.0693 167.121 87.977 146.814L87.808 109.89L86.4808 108.058C83.6926 104.209 84.9876 104.322 43.9754 104.324C9.83646 104.324 6.70364 104.406 4.79801 105.349ZM110.74 105.398C109.605 106 108.132 107.21 107.467 108.087C106.284 109.647 106.254 110.526 106.096 147.337L105.935 184.992L107.286 186.948C108.03 188.023 109.394 189.455 110.318 190.13C111.982 191.344 112.374 191.356 150 191.356C187.626 191.356 188.018 191.344 189.682 190.13C190.606 189.455 191.964 188.032 192.701 186.966L194.04 185.029V148.173C194.04 107.627 194.129 108.649 190.388 106.022L188.386 104.615L150.595 104.46C114.665 104.312 112.702 104.358 110.74 105.398ZM216.785 105.297C215.711 105.819 214.238 107.065 213.512 108.068L212.192 109.89L212.023 146.814C211.931 167.121 212.002 184.325 212.181 185.045C212.36 185.764 213.32 187.265 214.314 188.379C217.224 191.644 218.302 191.721 258.09 191.528C291.431 191.367 293.841 191.287 295.511 190.281C296.493 189.69 297.833 188.503 298.487 187.644C299.645 186.124 299.682 185.04 299.839 148.237L300 110.393L298.637 108.383C295.776 104.167 297.424 104.323 255.935 104.337C222.888 104.348 218.521 104.455 216.785 105.297ZM5.38125 213.748C4.89026 213.925 3.86067 214.629 3.09294 215.313C-0.063085 218.127 0.0249959 216.933 0.0249959 256.881V294.04L1.37596 296.032C4.24691 300.264 2.47637 300.105 44.6604 299.934L82.4517 299.782L84.4532 298.376C88.1942 295.749 88.1056 296.765 88.1032 256.284C88.1014 220.601 88.0651 219.43 86.9183 217.578C86.2678 216.527 84.8632 215.144 83.7962 214.503C81.9125 213.372 80.7693 213.34 44.0653 213.383C23.28 213.407 5.87224 213.571 5.38125 213.748ZM111.316 213.741C110.825 213.922 109.795 214.629 109.028 215.313C105.873 218.125 105.96 216.962 105.961 256.529C105.962 297.165 105.836 295.76 109.723 298.568C111.381 299.766 111.899 299.782 150 299.782C188.101 299.782 188.619 299.766 190.277 298.568C194.164 295.76 194.038 297.165 194.039 256.529C194.04 216.672 194.161 218.208 190.776 215.092L189.184 213.627L150.696 213.521C129.528 213.462 111.807 213.562 111.316 213.741ZM216.204 214.496C215.137 215.14 213.732 216.527 213.082 217.578C211.935 219.43 211.899 220.601 211.897 256.284C211.894 296.765 211.806 295.749 215.547 298.376L217.548 299.782L255.34 299.934C297.524 300.105 295.753 300.264 298.624 296.032L299.975 294.04V256.881C299.975 216.641 300.098 218.209 296.711 215.092L295.119 213.627L256.631 213.476C219.051 213.328 218.098 213.352 216.204 214.496Z" fill="black"/>
</svg>

<svg width="300" height="300" fill="none" xmlns="http://www.w3.org/2000/svg"><path fill-rule="evenodd" clip-rule="evenodd" d="M4.798 1.02c-1.14.567-2.68 1.927-3.422 3.022L.025 6.034v37.159c0 40.24-.123 38.672 3.264 41.789l1.592 1.465 38.488.151c37.58.148 38.533.124 40.427-1.02 1.067-.644 2.472-2.031 3.122-3.082 1.147-1.852 1.183-3.023 1.185-38.705.003-40.482.091-39.466-3.65-42.093L82.452.292 44.66.14C9.584-.002 6.72.062 4.798 1.02zm105.965.006c-1.122.563-2.595 1.769-3.273 2.68-1.212 1.626-1.236 2.277-1.395 38.968-.113 26.034.036 37.783.49 38.863.358.852 1.453 2.305 2.433 3.23l1.781 1.68h78.402l1.781-1.68c.98-.925 2.075-2.378 2.433-3.23.454-1.08.603-12.83.49-38.863-.159-36.69-.183-37.342-1.395-38.969C189.659-.12 191.066.001 150 .001c-34.238 0-37.359.082-39.237 1.025zm105.903.058c-1.13.597-2.599 1.803-3.265 2.68-1.182 1.56-1.213 2.433-1.363 39.209-.15 36.72-.126 37.658 1.036 39.523.655 1.05 2.063 2.438 3.13 3.082 1.894 1.144 2.847 1.168 40.427 1.02l38.488-.151 1.592-1.465c3.387-3.117 3.264-1.55 3.264-41.79V6.035l-1.351-1.992c-2.845-4.194-1.222-4.04-42.699-4.041-35.074-.002-37.323.06-39.259 1.083zM4.798 105.35c-1.14.563-2.685 1.929-3.435 3.034L0 110.393l.161 37.844c.157 36.803.194 37.887 1.352 39.407.655.859 1.994 2.046 2.976 2.637 1.67 1.006 4.08 1.086 37.42 1.247 39.789.193 40.867.116 43.777-3.149.994-1.114 1.954-2.615 2.133-3.334.18-.72.25-17.924.158-38.231l-.169-36.924-1.327-1.832c-2.788-3.849-1.493-3.736-42.506-3.734-34.139 0-37.271.082-39.177 1.025zm105.942.049c-1.135.602-2.608 1.812-3.273 2.689-1.183 1.56-1.213 2.439-1.371 39.25l-.161 37.655 1.351 1.956c.744 1.075 2.108 2.507 3.032 3.182 1.664 1.214 2.056 1.226 39.682 1.226 37.626 0 38.018-.012 39.682-1.226.924-.675 2.282-2.098 3.019-3.164l1.339-1.937v-36.856c0-40.546.089-39.524-3.652-42.151l-2.002-1.407-37.791-.155c-35.93-.148-37.893-.102-39.855.938zm106.045-.101c-1.074.522-2.547 1.768-3.273 2.771l-1.32 1.822-.169 36.924c-.092 20.307-.021 37.511.158 38.231.179.719 1.139 2.22 2.133 3.334 2.91 3.265 3.988 3.342 43.776 3.149 33.341-.161 35.751-.241 37.421-1.247.982-.591 2.322-1.778 2.976-2.637 1.158-1.52 1.195-2.604 1.352-39.407l.161-37.844-1.363-2.01c-2.861-4.216-1.213-4.06-42.702-4.046-33.047.011-37.414.118-39.15.96zM5.381 213.748c-.49.177-1.52.881-2.288 1.565-3.156 2.814-3.068 1.62-3.068 41.568v37.159l1.351 1.992c2.87 4.232 1.1 4.073 43.284 3.902l37.792-.152 2.001-1.406c3.741-2.627 3.653-1.611 3.65-42.092-.002-35.683-.038-36.854-1.185-38.706-.65-1.051-2.055-2.434-3.122-3.075-1.884-1.131-3.027-1.163-39.73-1.12-20.786.024-38.194.188-38.685.365zm105.935-.007c-.491.181-1.521.888-2.288 1.572-3.155 2.812-3.068 1.649-3.067 41.216.001 40.636-.125 39.231 3.762 42.039 1.658 1.198 2.176 1.214 40.277 1.214s38.619-.016 40.277-1.214c3.887-2.808 3.761-1.403 3.762-42.039.001-39.857.122-38.321-3.263-41.437l-1.592-1.465-38.488-.106c-21.168-.059-38.889.041-39.38.22zm104.888.755c-1.067.644-2.472 2.031-3.122 3.082-1.147 1.852-1.183 3.023-1.185 38.706-.003 40.481-.091 39.465 3.65 42.092l2.001 1.406 37.792.152c42.184.171 40.413.33 43.284-3.902l1.351-1.992v-37.159c0-40.24.123-38.672-3.264-41.789l-1.592-1.465-38.488-.151c-37.58-.148-38.533-.124-40.427 1.02z" fill="#000"/></svg>
